X:3016
T:Cushie Butterfield
T:Pretty Polly Perkins of Paddington Green
R:Waltz
C:Trad. Song
O:Newcastle England
Z:Paul Hardy's Session Tunebook 2015 (see www.paulhardy.net). Creative Commons cc by-nc-sa licenced.
M:3/4
L:1/8
Q:1/4=150
K:D
AG|"D"FAd2e2|d2F2A2|"A7"G2F2E2|"D"D4d2|"A"e2A2ff|e2A2cc|"Bm"d2c2B2|"A"A4A3/2G/|
"D"FAd2e2|ddA2A2|"Em"B2e2e2|"D"A4de|fegfed|"Em"e2B2d2|"A7"A2B2c2|"D"d4AG||
"D"FFd2de|ddA2A2|"Em"B2e2e2|"D"A4de|fegfed|"Em"e2B2d2|"A7"A2B2c2|"D"d6|]

